**kern	**kern	**dynam
*part1	*part1	*part1
*staff2	*staff1	*
*I"Piano	*	*
*clefF4	*clefG2	*
*k[f#c#g#]	*k[f#c#g#]	*
=1	=1	=1
2C# 2E 2Gn	4r	<
.	4A#X 4a#X	.
4C# 4E 4G	4A# 4a#	.
=	=	=
2C# 2E 2Gn 2A#X	(2e 2ee	[ f
4C# 4E 4G 4A#	4f#) 4ff#	.
=	=	=
2C# 2E 2Gn 2A#X	(2gn 2ggn	.
4C# 4E 4G	4A#X) 4a#X	.
=	=	=
2D 2F#	(2A#X 2a#X	sf
4D 4F#	4B) 4b	.
=	=	=
2D 2F#	4r	p
.	4B 4b	.
4D 4F#	4B 4b	.
=	=	=
!	!LO:TX:b:i:t=cresc.	!
2D 2F#	2B#X 2b#X	.
4D 4A	4f# 4b#	.
=	=	=
2D 2G#	2g# 2b#X	.
4D 4F#	4a 4b#	.
=	=	=
2C# 2G#	2e#X 2cc#	f
4C#	4c#	.
=	=	=
2C#	(2c#'	p
4C#	4c#')	.
=	=	=
2FF# 2C# 2F#	(2f#	.
4GG# 4C# 4G#	4g#)	.
=	=	=
*-	*-	*-
!!!system-decoration: {(s1,s2)}
